X:2663
T:House on the Hill, The
O:england
R:reel
N:With variations
D:Paul McGrattan: The Frost Is All Over
M:C|
K:G
G2Bd gdBd|cBAB cded|B3A GBdg|ecAF GFED|
G2Bd gdBd|cBAB cded|B2BA GABd|egfa g3z|
~g3f gdBd|cBAB cded|~B3A GBdg|ecAF GFED|
G2Bd gdBd|cBAB cded|B2BA GABd|egfa g3a||
bg~g2 b2ag|egdg egd2|bg~g2 b2ag|egfa ~g3a|
bgga b2ag|egdg egd2|~g3a gfed|egfa g3a|
b2ga b2ag|egdg egd2|~b3g bgag|egfa ~g3a|
bg~g2 b2ag|egdg egd2|g3a gfed|e2fa gedB||
